X:1     %Music
T:Hind Horn
B:Milner D,Kaplan P, 1983,Songs of England,Ireland and Scotland,Oak,New York
F:http://www.folkinfo.org/songs
M:2/4     %Meter
L:1/16     %
K:G
G4 |G2G2 F4 |E4 D2D2 |B,4 (A,2B,2) | D8 |z4
w:Near Ed-in-burgh town was a young child_ born
 {D}G2G2 |G4 F4 |{EF}E4 D2D2 | G4 (A2B2) |B8 |z4
w:With a high loo, low and a high loo_ land. 
 A4 |B4 d4 | (B4A2G2) |{G}A4 (A2B2) |D8 |z4 
w:His name was called__ young Hind_ Horn 
D2D2 | E4 G2(GA) |{A}B4 (A2G2) |E4 (D2F2) |E12  |]
w:And the birk and the_ broom blooms_ bon-nie_ o. 
